app/src/main/assets/symbols/money/atm.svg

<svg xmlns:dc="http://purl.org/dc/elements/1.1/" 
   xmlns:cc="http://creativecommons.org/ns#"
   xmlns:rdf="http://www.w3.org/1999/02/22-rdf-syntax-ns#" 
   xmlns:svg="http://www.w3.org/2000/svg" 
   xmlns="http://www.w3.org/2000/svg" 
   version="1.1" 
   width="16"
   height="16"
   viewBox="0 0 16 16" 
   id="svg2">  <metadata id="metadata8">
    <rdf:RDF>
      <cc:Work rdf:about="">
        <dc:format>image/svg+xml</dc:format>
        <dc:type rdf:resource="http://purl.org/dc/dcmitype/StillImage"/>
        <dc:title/>
      </cc:Work>
    </rdf:RDF>
  </metadata>
  <defs id="defs6"/>
  <rect width="16" height="16" x="0" y="0" id="canvas" style="fill:none;stroke:none;visibility:hidden"/>
  <path d="M 1,0 C 0.457627,0 0,0.4576271 0,1 l 0,2 c 0,0.559322 0.488617,1 1,1 l 0,-2 12,0 0,2 c 0.511382,0 1,-0.4857094 1,-1 L 14,1 C 14,0.4576271 13.508475,0 13,0 z m 1,3 0,8 c 0,0.599243 0.400757,1 1,1 l 8,0 c 0.527334,0 1,-0.448696 1,-1 l 0,-8 -1,0 0,6 C 10,9 9,10 9,11 L 5,11 C 5,10 4,9 3,9 L 3,3 z M 7,4 C 5.429204,4 4,4.9528024 4,6 4,7.047198 5.429204,8 7,8 8.570796,8 10,7.047198 10,6 10,4.9528024 8.570796,4 7,4 z M 2,12.5 C 2,13.554668 2.424727,14 3,14 l 8,0 c 0.527334,0 1,-0.445332 1,-1.5 -0.305085,0.271186 -0.496636,0.49272 -1,0.46875 l -8,0.0625 C 2.520606,13.00728 2.305085,12.805085 2,12.5 z" id="atm" style="fill:#734a08;fill-opacity:1;stroke:none" transform="translate(1,1)"/>
</svg>

<?xml version="1.0" encoding="UTF-8"?>
<svg version="1.1" viewBox="0 0 16 16" xmlns="http://www.w3.org/2000/svg" xmlns:cc="http://creativecommons.org/ns#" xmlns:dc="http://purl.org/dc/elements/1.1/" xmlns:rdf="http://www.w3.org/1999/02/22-rdf-syntax-ns#">
<metadata>
<rdf:RDF>
<cc:Work rdf:about="">
<dc:format>image/svg+xml</dc:format>
<dc:type rdf:resource="http://purl.org/dc/dcmitype/StillImage"/>
<dc:title/>
</cc:Work>
</rdf:RDF>
</metadata>
<rect width="16" height="16" fill="none" visibility="hidden"/>
<path transform="translate(1,1)" d="m1 0c-0.54237 0-1 0.45763-1 1v2c0 0.55932 0.48862 1 1 1v-2h12v2c0.51138 0 1-0.48571 1-1v-2c0-0.54237-0.49152-1-1-1zm1 3v8c0 0.59924 0.40076 1 1 1h8c0.52733 0 1-0.4487 1-1v-8h-1v6c-1 0-2 1-2 2h-4c0-1-1-2-2-2v-6zm5 1c-1.5708 0-3 0.9528-3 2 0 1.0472 1.4292 2 3 2s3-0.9528 3-2c0-1.0472-1.4292-2-3-2zm-5 8.5c0 1.0547 0.42473 1.5 1 1.5h8c0.52733 0 1-0.44533 1-1.5-0.30508 0.27119-0.49664 0.49272-1 0.46875l-8 0.0625c-0.47939-0.02397-0.69492-0.22616-1-0.53125z" fill="#734a08"/>
</svg>
